data/styles/clear/style-clear/symbols/doityourself-m.svg

<svg height="24" viewBox="0 0 24 24" width="24"><g fill="none" fill-rule="evenodd"><circle cx="12" cy="12" fill="#fff" opacity=".6" r="12"/><circle cx="12" cy="12" fill="#8c5f93" r="11"/><path d="m16 7.4v1.6h-8v-4h5.8175207c0 1.326.9771617 2.4 2.1824793 2.4zm-2.5460743 10.099v-7.499h-2.7269629v7.499c0 .828.6108397 1.501 1.3634815 1.501.7526417 0 1.3634814-.673 1.3634814-1.501z" fill="#fff"/></g></svg>

<svg width="24" height="24" viewBox="0 0 24 24">
  <g fill="none" fill-rule="evenodd">
    <circle cx="12" cy="12" r="12" fill="#FFF" opacity=".6"/>
    <circle cx="12" cy="12" r="11" fill="#8C5F93"/>
    <path fill="#FFF" d="M16,7.4 L16,9 L8,9 L8,5 L13.8175207,5 C13.8175207,6.326 14.7946824,7.4 16,7.4 L16,7.4 Z M13.4539257,17.499 L13.4539257,10 L10.7269628,10 L10.7269628,17.499 C10.7269628,18.327 11.3378025,19 12.0904443,19 L12.0904443,19 C12.843086,19 13.4539257,18.327 13.4539257,17.499 L13.4539257,17.499 Z"/>
  </g>
</svg>
